svgs/thin/gift.svg

<svg xmlns="http://www.w3.org/2000/svg" viewBox="0 0 512 512"><!--! Font Awesome Pro 6.3.0 by @fontawesome - https://fontawesome.com License - https://fontawesome.com/license (Commercial License) Copyright 2023 Fonticons, Inc. --><path d="M256 120.9L309.6 35.21C323.3 13.31 347.3 0 373.1 0H376C415.8 0 448 32.24 448 72C448 94.62 437.6 114.8 421.3 128H464C490.5 128 512 149.5 512 176V208C512 228.9 498.6 246.7 480 253.3V448C480 483.3 451.3 512 416 512H96C60.65 512 32 483.3 32 448V253.3C13.36 246.7 0 228.9 0 208V176C0 149.5 21.49 128 48 128H90.74C74.43 114.8 64 94.62 64 72C64 32.24 96.24 0 136 0H138.9C164.7 0 188.8 13.31 202.4 35.21L256 120.9zM373.1 16C352.8 16 333.9 26.46 323.1 43.69L270.4 128H376C406.9 128 432 102.9 432 72C432 41.07 406.9 16 376 16H373.1zM241.6 128L188.9 43.69C178.1 26.46 159.2 16 138.9 16H136C105.1 16 80 41.07 80 72C80 102.9 105.1 128 136 128H241.6zM48 144C30.33 144 16 158.3 16 176V208C16 225.7 30.33 240 48 240H248V144H48zM264 240H464C481.7 240 496 225.7 496 208V176C496 158.3 481.7 144 464 144H264V240zM248 256H48V448C48 474.5 69.49 496 96 496H248V256zM416 496C442.5 496 464 474.5 464 448V256H264V496H416z"/></svg>

<svg xmlns="http://www.w3.org/2000/svg" viewBox="0 0 512 512"><!--! Font Awesome Pro 6.4.0 by @fontawesome - https://fontawesome.com License - https://fontawesome.com/license (Commercial License) Copyright 2023 Fonticons, Inc. --><path d="M373.1 16c-20.3 0-39.2 10.5-50 27.7L270.4 128H296h80c30.9 0 56-25.1 56-56s-25.1-56-56-56h-2.9zM241.6 128L188.9 43.7C178.1 26.5 159.2 16 138.9 16H136c-30.9 0-56 25.1-56 56s25.1 56 56 56h80 25.6zm14.4-7.1l53.6-85.7C323.3 13.3 347.3 0 373.1 0H376c39.8 0 72 32.2 72 72c0 22.6-10.4 42.8-26.7 56H464c26.5 0 48 21.5 48 48v32c0 20.9-13.4 38.7-32 45.3V256 448c0 35.3-28.7 64-64 64H96c-35.3 0-64-28.7-64-64V256v-2.7C13.4 246.7 0 228.9 0 208V176c0-26.5 21.5-48 48-48H90.7C74.4 114.8 64 94.6 64 72C64 32.2 96.2 0 136 0h2.9c25.8 0 49.8 13.3 63.5 35.2L256 120.9zM136 144H48c-17.7 0-32 14.3-32 32v32c0 17.7 14.3 32 32 32H248V144H216 136zm128 0v96H464c17.7 0 32-14.3 32-32V176c0-17.7-14.3-32-32-32H376 296 264zM248 256H48V448c0 26.5 21.5 48 48 48H248V256zm16 240H416c26.5 0 48-21.5 48-48V256H264V496z"/></svg>
